!!!Genre:	Freylekhs
!!!Mode:	Minor
!!!Listening/dance:	dance
!!!:	*B-:
!!!One_Mode:	no
**kern
*I"P1
*clefG2
*k[b-e-]
*>bM
*g:
=9!|:
*>B
16ccLL
16dd
16ee-
16ddJJ
8ccL
8ddJ
=10
8ccL
16b-L
16aJJ
4b-
=11
16aLL
16b-
16cc
16ddJJ
16ccLL
16b-
16a
16gJJ
=12
(16aLL
16b-J
8gJ)
(16aLL
16b-J
8gJ)
=13
16ccLL
16dd
16ee-
16ddJJ
8ccL
8ddJ
=14
8ccL
16b-L
16aJJ
4b-
=15
16aLL
16b-
16cc
16ddJJ
16ccLL
16b-
16a
16gJJ
=16
(16aLL
16b-JJ
4g)
8r
=17:|!
*>C
4.gg
8dd
=18
4.gg
8dd
=19
8ggL
8dd
8gg
8ddJ
=20
8ggL
8ddJ
4gg
=21
4.ff
8cc
=22
4.ff
8cc
=23
8ffL
8cc
8ff
8ccJ
=24
8ffL
8ccJ
4ff
=25
16cc#XLL
16ee-J
8ddJ
8ddL
8ddJ
=26
16cc#XLL
16ee-J
8ddJ
8ddL
8ddJ
=27
16cc#XLL
16ee-J
8ddJ
16cc#LL
16ee-J
8ddJ
=28
8ccnL
16b-L
16aJJ
4b-
=29
8.ggL
16ddJk
4dd
=30
8ccL
16b-L
16aJJ
4b-
=31
16aLL
16b-
16cc
16ddJJ
16ccLL
16b-
16a
16gJJ
=32
(16aLL
16b-JJ
4g)
8r
==
*-
